v/0.4.11/design-resources/icons/wf_icons/page-break.svg

<?xml version="1.0" encoding="utf-8"?>
<!-- Generated by IcoMoon.io -->
<!DOCTYPE svg PUBLIC "-//W3C//DTD SVG 1.1//EN" "http://www.w3.org/Graphics/SVG/1.1/DTD/svg11.dtd">
<svg version="1.1" xmlns="http://www.w3.org/2000/svg" xmlns:xlink="http://www.w3.org/1999/xlink" width="512" height="512" viewBox="0 0 512 512">
<g>
</g>
	<path d="M112 64h240c29.607 0 48 17.166 48 44.8v83.2h32v-83.2c0-44.8-32-76.8-80-76.8h-272v160h32v-128zM400 368v80h-288v-128h-32v160h352v-160h-32v32zM32 224h448v48h-448zM340.687 160l-20.687 20.687-32-32-32 32-32-32-32 32-32-32-37.657 37.656 11.314 11.314 26.343-26.344 32 32 32-32 32 32 32-32 32 32 32-32 26.344 26.344 11.312-11.314-37.656-37.656zM133.657 341.656l26.343-26.343 32 32 32-32 32 32 32-32 32 32 32-32 26.344 26.343 11.312-11.312-37.656-37.657-32 32-32-32-32 32-32-32-32 32-32-32-37.657 37.657z" fill="#595959" />
</svg>

<svg xmlns="http://www.w3.org/2000/svg" width="512" height="512" viewBox="0 0 512 512"><path stroke="#449FDB" d="M0 0"/><path d="M112 64h240c29.607 0 48 17.166 48 44.8V192h32v-83.2C432 64 400 32 352 32H80v160h32V64zm288 304v80H112V320H80v160h352V320h-32v32zM32 224h448v48H32zm308.687-64L320 180.687l-32-32-32 32-32-32-32 32-32-32-37.657 37.656 11.314 11.314L160 171.313l32 32 32-32 32 32 32-32 32 32 32-32 26.344 26.344 11.312-11.314L352 148.687zm-207.03 181.656L160 315.313l32 32 32-32 32 32 32-32 32 32 32-32 26.344 26.343 11.312-11.312L352 292.687l-32 32-32-32-32 32-32-32-32 32-32-32-37.657 37.657z" fill="#595959"/></svg>
